assets/icons/qvision/settings_overscan.svg

<svg xmlns="http://www.w3.org/2000/svg" height="24" viewBox="0 0 24 24" width="24"><path d="M0 0h24v24H0z" fill="none"/><path d="M12.01 5.5L10 8h4l-1.99-2.5zM18 10v4l2.5-1.99L18 10zM6 10l-2.5 2.01L6 14v-4zm8 6h-4l2.01 2.5L14 16zm7-13H3c-1.1 0-2 .9-2 2v14c0 1.1.9 2 2 2h18c1.1 0 2-.9 2-2V5c0-1.1-.9-2-2-2zm0 16.01H3V4.99h18v14.02z"/></svg>

<svg width="24" height="24" viewBox="0 0 24 24" fill="none" xmlns="http://www.w3.org/2000/svg">
<g clip-path="url(#clip0_147_4732)">
<path d="M12.01 5.5L10 8H14L12.01 5.5ZM18 10V14L20.5 12.01L18 10ZM6 10L3.5 12.01L6 14V10ZM14 16H10L12.01 18.5L14 16ZM21 3H3C1.9 3 1 3.9 1 5V19C1 20.1 1.9 21 3 21H21C22.1 21 23 20.1 23 19V5C23 3.9 22.1 3 21 3ZM21 19.01H3V4.99H21V19.01Z" fill="#323232"/>
</g>
<defs>
<clipPath id="clip0_147_4732">
<rect width="24" height="24" fill="white"/>
</clipPath>
</defs>
</svg>
